X: 1
T: la Cucaracha
T: the Cockroach
O: Mexico
M: 4/4
L: 1/8
K: F
z3 \
| "F"zC2 C FF AA | c2 A2 z4 | zc2 c dc BA | "C7"B2 G2 z4 |
|    zC2 C EE GG | B2 G2 z4 | zc2 d cB AG |1 "F"A2 F2 z :|2 "F"F2 z3 ||
|: CCC \
| "F"F3 A zCCC | F3 A z4 | zFFF EE DD | "C7"C4 zCCC |
|    E3 G zCCC | E3 G z4 | zc2 d cB AG | "F"F2 z3 :|
